grunt/fonts/orig/never-miss.svg

<svg xmlns:svg="http://www.w3.org/2000/svg" xmlns="http://www.w3.org/2000/svg" version="1.1" x="0px" y="0px" width="20px" height="20px" viewBox="0 0 20 20" enable-background="new 0 0 20 20" xml:space="preserve" >
    <g id="g16">
        <path d="M4.03125 0C1.8766673 0.085537851-0.073112926 2.0368218 0 4.25 0.0022766874 4.4436422 0.004973629 4.6518618 0.03125 4.84375 0.18271283 5.5854263 0.42184092 6.597891 1.09375 6.9375 1.8065183 5.3160103 2.9557028 3.871406 4.40625 2.84375 5.0516569 2.0670545 6.8443921 1.8966276 7.1875 1.3125 6.6610143 0.73240317 5.8148721 0.19978339 4.96875 0.0625 4.6578669-0.006116005 4.3390475-0.012219693 4.03125 0zM15.5 0C15.3447 0.013186552 15.186678 0.028599273 15.03125 0.0625 14.251851 0.26278409 13.00898 0.67991535 12.8125 1.46875 15.549195 2.2356007 17.737256 4.3688508 18.9375 6.90625 19.541999 6.5300189 19.82946 5.5733161 19.96875 4.84375 19.995105 4.6518879 19.997714 4.443627 20 4.25 20.078096 1.8786714 17.829505-0.19779829 15.5 0zM9.8125 0.75C9.5272922 0.77385073 9.2628665 0.87748967 9.03125 1.09375 8.4436755 1.7642966 8.4922105 2.6158903 7.375 2.59375 3.6508605 3.8143164 1.0643084 7.7736016 1.5625 11.6875 1.7786993 13.716727 2.7430555 15.633809 4.1875 17.0625 3.6613176 17.614343 3.0899109 18.111051 2.59375 18.6875 2.572421 19.196572 3.1667044 19.455718 3.4375 19.84375 3.9129347 20.314037 4.3198478 19.56387 4.65625 19.28125L5.75 18.21875C8.3142025 19.764122 11.677541 19.745443 14.25 18.21875 14.855552 18.794881 15.423354 19.468595 16.0625 20 16.635719 20.05071 16.900911 19.368312 17.3125 19.0625 17.589943 18.539794 16.821522 18.251901 16.5625 17.875L15.75 17.09375C18.736822 14.44269 19.387166 9.6491279 17.25 6.28125 16.012032 4.2353476 13.889831 2.7270267 11.53125 2.3125 11.606672 1.3738981 10.668123 0.67844782 9.8125 0.75zM9.6875 4.09375C12.445194 3.9581269 15.236888 5.7124185 16.1875 8.34375 17.352725 11.263399 16.207587 14.92772 13.46875 16.53125 12.443726 17.162291 11.23433 17.497073 10.03125 17.5 6.7122284 17.573749 3.6960429 14.796283 3.4375 11.5 3.0367169 8.2658288 5.3361181 4.9647358 8.53125 4.28125 8.9193184 4.1818722 9.2935437 4.1131247 9.6875 4.09375zM9.34375 5.46875C8.8367479 5.5846081 9.152739 6.3001803 9.0625 6.6875L9.0625 11.1875C9.0666395 11.194253 9.0894143 11.18108 9.09375 11.1875 9.0980857 11.19392 9.0892228 11.212656 9.09375 11.21875 9.088847 11.263995 9.0854864 11.300015 9.09375 11.34375L12 14.21875C12.420324 14.320154 12.797692 13.674067 13.03125 13.34375 12.661489 12.755981 12.062845 12.340704 11.59375 11.8125 11.260441 11.49049 10.922927 11.139554 10.59375 10.8125 10.589645 10.556299 10.556383 10.299664 10.59375 10.0625L10.59375 5.71875 10.625 5.71875C10.422198 5.2680268 9.7539295 5.5590352 9.34375 5.46875z" id="path26"/>
    </g>
</svg>

<svg xmlns="http://www.w3.org/2000/svg" width="20" height="20" viewBox="0 0 20 20"><path d="M4.031 0c-2.155.086-4.104 2.037-4.031 4.25.002.194.005.402.031.594.151.742.391 1.754 1.063 2.094.713-1.621 1.862-3.066 3.313-4.094.645-.777 2.438-.947 2.781-1.531-.526-.58-1.373-1.113-2.219-1.25-.311-.069-.63-.075-.938-.063zm11.469 0c-.155.013-.313.029-.469.063-.779.2-2.022.617-2.219 1.406 2.737.767 4.925 2.9 6.125 5.438.604-.376.892-1.333 1.031-2.063.026-.192.029-.4.031-.594.078-2.371-2.17-4.448-4.5-4.25zm-5.688.75c-.285.024-.55.127-.781.344-.588.671-.539 1.522-1.656 1.5-3.724 1.221-6.311 5.18-5.813 9.094.216 2.029 1.181 3.946 2.625 5.375-.526.552-1.098 1.049-1.594 1.625-.021.509.573.768.844 1.156.475.47.882-.28 1.219-.563l1.094-1.063c2.564 1.545 5.928 1.527 8.5 0 .606.576 1.173 1.25 1.813 1.781.573.051.838-.632 1.25-.938.277-.523-.491-.811-.75-1.188l-.813-.781c2.987-2.651 3.637-7.445 1.5-10.813-1.238-2.046-3.36-3.554-5.719-3.969.075-.939-.863-1.634-1.719-1.563zm-.125 3.344c2.758-.136 5.549 1.619 6.5 4.25 1.165 2.92.02 6.584-2.719 8.188-1.025.631-2.234.966-3.438.969-3.319.074-6.335-2.704-6.594-6-.401-3.234 1.899-6.535 5.094-7.219.388-.099.762-.168 1.156-.188zm-.344 1.375c-.507.116-.191.831-.281 1.219v4.5h.031v.156l2.906 2.875c.42.101.798-.545 1.031-.875-.37-.588-.968-1.003-1.438-1.531-.333-.322-.671-.673-1-1-.004-.256-.037-.513 0-.75v-4.344h.031c-.203-.451-.871-.16-1.281-.25z"/></svg>
